**harm	**harte	**timestamp	**phrase	**leadinstrument	**kern
*M4/4	*M4/4	*	*	*	*
*E-:	*E-:	*	*	*	*E-:
1r;	N	0	.	r	1r;
=1	=1	=1	=1	=1	=1
*>A_intro	*>A_intro	*>A_intro	*>A_intro	*>A_intro	*>A_intro
1r	N	0.093	newline	r	1r
=2	=2	=2	=2	=2	=2
1Vd	B-:sus4(9)/7	0.348	newline	saxophone	1b- 1dd 1ff
=3	=3	=3	=3	=3	=3
1Vd	B-:sus4(9)/7	2.543	.	saxophone	1b- 1dd 1ff
=4	=4	=4	=4	=4	=4
1Vd	B-:sus4(9)/7	4.738	.	saxophone	1b- 1dd 1ff
=5	=5	=5	=5	=5	=5
1Vd	B-:sus4(9)/7	6.933	.	saxophone	1b- 1dd 1ff
=6	=6	=6	=6	=6	=6
*>B_verse	*>B_verse	*>B_verse	*>B_verse	*>B_verse	*>B_verse
2I	E-:maj	9.128	newline	voice	2E- 2g 2b-
2IVc	A-:maj/5	10.129	.	voice	2a- 2cc 2E-
=7	=7	=7	=7	=7	=7
2I7	E-:maj7	11.131	.	voice	2E- 2g 2b- 2dd
2IVc	A-:maj/5	12.133	.	voice	2a- 2cc 2E-
=8	=8	=8	=8	=8	=8
2I	E-:maj	13.134	.	voice	2E- 2g 2b-
2IVc	A-:maj/5	14.136	.	voice	2a- 2cc 2E-
=9	=9	=9	=9	=9	=9
2I7	E-:maj7	15.138	.	voice	2E- 2g 2b- 2dd
2IVc	A-:maj/5	16.139	.	voice	2a- 2cc 2E-
=10	=10	=10	=10	=10	=10
2IV	A-:maj	17.141	newline	voice	2A- 2cc 2ee-
2IV	A-:maj6	18.135	.	voice	2A- 2cc 2ee-
=11	=11	=11	=11	=11	=11
2IV7	A-:maj7	19.129	.	voice	2A- 2cc 2ee- 2gg
2IV	A-:maj6	20.123	.	voice	2A- 2cc 2ee-
=12	=12	=12	=12	=12	=12
2Ic	E-:maj/5	21.118	.	voice	2e- 2g 2B-
2vi7	C:min7	22.112	.	voice	2C 2e- 2g 2b-
=13	=13	=13	=13	=13	=13
2Ic	E-:maj/5	23.106	.	voice	2e- 2g 2B-
2vi7	C:min7	24.1	.	voice	2C 2e- 2g 2b-
=14	=14	=14	=14	=14	=14
2I	E-:maj	25.094	newline	voice	2E- 2g 2b-
2IVc	A-:maj/5	26.098	.	voice	2a- 2cc 2E-
=15	=15	=15	=15	=15	=15
2I7	E-:maj7	27.103	.	voice	2E- 2g 2b- 2dd
2IVc	A-:maj/5	28.107	.	voice	2a- 2cc 2E-
=16	=16	=16	=16	=16	=16
2I	E-:maj	29.112	.	voice	2E- 2g 2b-
2IVc	A-:maj/5	30.116	.	voice	2a- 2cc 2E-
=17	=17	=17	=17	=17	=17
2I7	E-:maj7	31.12	.	voice	2E- 2g 2b- 2dd
2IVc	A-:maj/5	32.125	.	voice	2a- 2cc 2E-
=18	=18	=18	=18	=18	=18
2IV	A-:maj	33.129	newline	voice	2A- 2cc 2ee-
2IV	A-:maj6	34.126	.	voice	2A- 2cc 2ee-
=19	=19	=19	=19	=19	=19
2IV7	A-:maj7	35.123	.	voice	2A- 2cc 2ee- 2gg
2IV	A-:maj6	36.119	.	voice	2A- 2cc 2ee-
=20	=20	=20	=20	=20	=20
2Ic	E-:maj/5	37.116	.	voice	2e- 2g 2B-
2vi7	C:min7	38.113	.	voice	2C 2e- 2g 2b-
=21	=21	=21	=21	=21	=21
2Ic	E-:maj/5	39.11	.	voice	2e- 2g 2B-
2vi7	C:min7	40.107	.	voice	2C 2e- 2g 2b-
=22	=22	=22	=22	=22	=22
*>C_prechorus	*>C_prechorus	*>C_prechorus	*>C_prechorus	*>C_prechorus	*>C_prechorus
1V	B-:sus4(9)	41.103	newline	voice	1B- 1dd 1ff
=23	=23	=23	=23	=23	=23
1V	B-:sus4(9)	43.101	.	voice	1B- 1dd 1ff
=24	=24	=24	=24	=24	=24
1V	B-:sus4(9)	45.099	.	voice	1B- 1dd 1ff
=25	=25	=25	=25	=25	=25
1V	B-:sus4(9)	47.096	.	voice	1B- 1dd 1ff
=26	=26	=26	=26	=26	=26
1V	B-:sus4(9)	49.094	.	voice	1B- 1dd 1ff
=27	=27	=27	=27	=27	=27
*>D_chorus	*>D_chorus	*>D_chorus	*>D_chorus	*>D_chorus	*>D_chorus
2IV	A-:maj	51.092	newline	voice	2A- 2cc 2ee-
2ii7	F:min7	52.095	.	voice	2F 2a- 2cc 2ee-
=28	=28	=28	=28	=28	=28
2IV	A-:maj	53.099	.	voice	2A- 2cc 2ee-
2ii7	F:min7	54.102	.	voice	2F 2a- 2cc 2ee-
=29	=29	=29	=29	=29	=29
2IV	A-:maj	55.105	.	voice	2A- 2cc 2ee-
2ii7	F:min7	56.109	.	voice	2F 2a- 2cc 2ee-
=30	=30	=30	=30	=30	=30
2IV	A-:maj	57.112	.	voice	2A- 2cc 2ee-
2ii7	F:min7	58.115	.	voice	2F 2a- 2cc 2ee-
=31	=31	=31	=31	=31	=31
2IV7	A-:maj7	59.118	newline	voice	2A- 2cc 2ee- 2gg
2I	E-:maj	60.12	.	voice	2E- 2g 2b-
=32	=32	=32	=32	=32	=32
4Ic	E-:maj/5	61.121	.	voice	4e- 4g 4B-
2.vi7	C:min7	61.622	.	voice	2C 2e- 2g 2b-
=33	=33	=33	=33	=33	=33
2IV7	A-:maj7	63.124	.	voice	2A- 2cc 2ee- 2gg
2I	E-:maj	64.125	.	voice	2E- 2g 2b-
=34	=34	=34	=34	=34	=34
1I	E-:maj	65.126	.	voice	1E- 1g 1b-
=35	=35	=35	=35	=35	=35
2IV	A-:maj	67.129	newline	voice	2A- 2cc 2ee-
2ii7	F:min7	68.133	.	voice	2F 2a- 2cc 2ee-
=36	=36	=36	=36	=36	=36
2IV	A-:maj	69.136	.	voice	2A- 2cc 2ee-
2ii7	F:min7	70.14	.	voice	2F 2a- 2cc 2ee-
=37	=37	=37	=37	=37	=37
2IV	A-:maj	71.144	.	voice	2A- 2cc 2ee-
2ii7	F:min7	72.148	.	voice	2F 2a- 2cc 2ee-
=38	=38	=38	=38	=38	=38
2IV	A-:maj	73.151	.	voice	2A- 2cc 2ee-
2ii7	F:min7	74.155	.	voice	2F 2a- 2cc 2ee-
=39	=39	=39	=39	=39	=39
2IV7	A-:maj7	75.159	newline	voice	2A- 2cc 2ee- 2gg
2I	E-:maj	76.156	.	voice	2E- 2g 2b-
=40	=40	=40	=40	=40	=40
4Ic	E-:maj/5	77.154	.	voice	4e- 4g 4B-
2.vi7	C:min7	77.653	.	voice	2C 2e- 2g 2b-
=41	=41	=41	=41	=41	=41
2IV7	A-:maj7	79.149	.	voice	2A- 2cc 2ee- 2gg
2I	E-:maj	80.147	.	voice	2E- 2g 2b-
=42	=42	=42	=42	=42	=42
4Ic	E-:maj/5	81.144	.	voice	4e- 4g 4B-
2.vi7	C:min7	81.643	.	voice	2C 2e- 2g 2b-
=43	=43	=43	=43	=43	=43
*>B_verse	*>B_verse	*>B_verse	*>B_verse	*>B_verse	*>B_verse
2I	E-:maj	83.139	newline	voice	2E- 2g 2b-
2IVc	A-:maj/5	84.129	.	voice	2a- 2cc 2E-
=44	=44	=44	=44	=44	=44
2I7	E-:maj7	85.119	.	voice	2E- 2g 2b- 2dd
2IVc	A-:maj/5	86.109	.	voice	2a- 2cc 2E-
=45	=45	=45	=45	=45	=45
2I	E-:maj	87.1	.	voice	2E- 2g 2b-
2IVc	A-:maj/5	88.09	.	voice	2a- 2cc 2E-
=46	=46	=46	=46	=46	=46
2I7	E-:maj7	89.08	.	voice	2E- 2g 2b- 2dd
2IVc	A-:maj/5	90.07	.	voice	2a- 2cc 2E-
=47	=47	=47	=47	=47	=47
2IV	A-:maj	91.06	newline	voice	2A- 2cc 2ee-
2IV	A-:maj6	92.064	.	voice	2A- 2cc 2ee-
=48	=48	=48	=48	=48	=48
2IV7	A-:maj7	93.068	.	voice	2A- 2cc 2ee- 2gg
2IV	A-:maj6	94.073	.	voice	2A- 2cc 2ee-
=49	=49	=49	=49	=49	=49
2Ic	E-:maj/5	95.077	.	voice	2e- 2g 2B-
2vi7	C:min7	96.081	.	voice	2C 2e- 2g 2b-
=50	=50	=50	=50	=50	=50
2Ic	E-:maj/5	97.086	.	voice	2e- 2g 2B-
2vi7	C:min7	98.09	.	voice	2C 2e- 2g 2b-
=51	=51	=51	=51	=51	=51
2I	E-:maj	99.094	newline	voice	2E- 2g 2b-
2IVc	A-:maj/5	100.095	.	voice	2a- 2cc 2E-
=52	=52	=52	=52	=52	=52
2I7	E-:maj7	101.097	.	voice	2E- 2g 2b- 2dd
2IVc	A-:maj/5	102.098	.	voice	2a- 2cc 2E-
=53	=53	=53	=53	=53	=53
2I	E-:maj	103.099	.	voice	2E- 2g 2b-
2IVc	A-:maj/5	104.1	.	voice	2a- 2cc 2E-
=54	=54	=54	=54	=54	=54
2I7	E-:maj7	105.101	.	voice	2E- 2g 2b- 2dd
2IVc	A-:maj/5	106.102	.	voice	2a- 2cc 2E-
=55	=55	=55	=55	=55	=55
2IV	A-:maj	107.103	newline	voice	2A- 2cc 2ee-
2IV	A-:maj6	108.105	.	voice	2A- 2cc 2ee-
=56	=56	=56	=56	=56	=56
2IV7	A-:maj7	109.106	.	voice	2A- 2cc 2ee- 2gg
2IV	A-:maj6	110.108	.	voice	2A- 2cc 2ee-
=57	=57	=57	=57	=57	=57
2Ic	E-:maj/5	111.11	.	voice	2e- 2g 2B-
2vi7	C:min7	112.111	.	voice	2C 2e- 2g 2b-
=58	=58	=58	=58	=58	=58
2Ic	E-:maj/5	113.113	.	voice	2e- 2g 2B-
2vi7	C:min7	114.115	.	voice	2C 2e- 2g 2b-
=59	=59	=59	=59	=59	=59
*>C_prechorus	*>C_prechorus	*>C_prechorus	*>C_prechorus	*>C_prechorus	*>C_prechorus
1V	B-:sus4(9)	115.116	newline	voice	1B- 1dd 1ff
=60	=60	=60	=60	=60	=60
1V	B-:sus4(9)	117.122	.	voice	1B- 1dd 1ff
=61	=61	=61	=61	=61	=61
1V	B-:sus4(9)	119.127	.	voice	1B- 1dd 1ff
=62	=62	=62	=62	=62	=62
1V	B-:sus4(9)	121.132	.	voice	1B- 1dd 1ff
=63	=63	=63	=63	=63	=63
1V	B-:sus4(9)	123.138	.	voice	1B- 1dd 1ff
=64	=64	=64	=64	=64	=64
*>D_chorus	*>D_chorus	*>D_chorus	*>D_chorus	*>D_chorus	*>D_chorus
2IV	A-:maj	125.143	newline	voice	2A- 2cc 2ee-
2ii7	F:min7	126.145	.	voice	2F 2a- 2cc 2ee-
=65	=65	=65	=65	=65	=65
2IV	A-:maj	127.146	.	voice	2A- 2cc 2ee-
2ii7	F:min7	128.148	.	voice	2F 2a- 2cc 2ee-
=66	=66	=66	=66	=66	=66
2IV	A-:maj	129.15	.	voice	2A- 2cc 2ee-
2ii7	F:min7	130.151	.	voice	2F 2a- 2cc 2ee-
=67	=67	=67	=67	=67	=67
1IV	A-:maj	131.153	.	voice	1A- 1cc 1ee-
=68	=68	=68	=68	=68	=68
2IV7	A-:maj7	133.156	newline	voice	2A- 2cc 2ee- 2gg
2I	E-:maj	134.15	.	voice	2E- 2g 2b-
=69	=69	=69	=69	=69	=69
4Ic	E-:maj/5	135.143	.	voice	4e- 4g 4B-
2.vi7	C:min7	135.64	.	voice	2C 2e- 2g 2b-
=70	=70	=70	=70	=70	=70
2IV7	A-:maj7	137.131	.	voice	2A- 2cc 2ee- 2gg
2I	E-:maj	138.124	.	voice	2E- 2g 2b-
=71	=71	=71	=71	=71	=71
1I	E-:maj	139.118	.	voice	1E- 1g 1b-
=72	=72	=72	=72	=72	=72
2IV	A-:maj	141.105	newline	voice	2A- 2cc 2ee-
2ii7	F:min7	142.104	.	voice	2F 2a- 2cc 2ee-
=73	=73	=73	=73	=73	=73
2IV	A-:maj	143.103	.	voice	2A- 2cc 2ee-
2ii7	F:min7	144.102	.	voice	2F 2a- 2cc 2ee-
=74	=74	=74	=74	=74	=74
2IV	A-:maj	145.101	.	voice	2A- 2cc 2ee-
2ii7	F:min7	146.099	.	voice	2F 2a- 2cc 2ee-
=75	=75	=75	=75	=75	=75
1IV	A-:maj	147.098	.	voice	1A- 1cc 1ee-
=76	=76	=76	=76	=76	=76
2IV7	A-:maj7	149.096	newline	voice	2A- 2cc 2ee- 2gg
2I	E-:maj	150.104	.	voice	2E- 2g 2b-
=77	=77	=77	=77	=77	=77
4Ic	E-:maj/5	151.112	.	voice	4e- 4g 4B-
2.vi7	C:min7	151.617	.	voice	2C 2e- 2g 2b-
=78	=78	=78	=78	=78	=78
2IV7	A-:maj7	153.129	.	voice	2A- 2cc 2ee- 2gg
2I	E-:maj	154.137	.	voice	2E- 2g 2b-
=79	=79	=79	=79	=79	=79
4Ic	E-:maj/5	155.145	.	voice	4e- 4g 4B-
2.vi7	C:min7	155.649	.	voice	2C 2e- 2g 2b-
=80	=80	=80	=80	=80	=80
*>E_interlude	*>E_interlude	*>E_interlude	*>E_interlude	*>E_interlude	*>E_interlude
1V	B-:sus4(9)	157.162	newline	synthesizer	1B- 1dd 1ff
=81	=81	=81	=81	=81	=81
1V	B-:sus4(9)	159.154	.	synthesizer	1B- 1dd 1ff
=82	=82	=82	=82	=82	=82
1V	B-:sus4(9)	161.147	.	synthesizer	1B- 1dd 1ff
=83	=83	=83	=83	=83	=83
1V	B-:sus4(9)	163.14	.	synthesizer	1B- 1dd 1ff
=84	=84	=84	=84	=84	=84
*>D_chorus	*>D_chorus	*>D_chorus	*>D_chorus	*>D_chorus	*>D_chorus
2IV	A-:maj	165.132	newline	voice	2A- 2cc 2ee-
2ii7	F:min7	166.134	.	voice	2F 2a- 2cc 2ee-
=85	=85	=85	=85	=85	=85
2IV	A-:maj	167.136	.	voice	2A- 2cc 2ee-
2ii7	F:min7	168.137	.	voice	2F 2a- 2cc 2ee-
=86	=86	=86	=86	=86	=86
2IV	A-:maj	169.139	.	voice	2A- 2cc 2ee-
2ii7	F:min7	170.141	.	voice	2F 2a- 2cc 2ee-
=87	=87	=87	=87	=87	=87
1IV	A-:maj	171.142	.	voice	1A- 1cc 1ee-
=88	=88	=88	=88	=88	=88
2IV7	A-:maj7	173.146	newline	voice	2A- 2cc 2ee- 2gg
2I	E-:maj	174.143	.	voice	2E- 2g 2b-
=89	=89	=89	=89	=89	=89
4Ic	E-:maj/5	175.14	.	voice	4e- 4g 4B-
2.vi7	C:min7	175.638	.	voice	2C 2e- 2g 2b-
=90	=90	=90	=90	=90	=90
2IV7	A-:maj7	177.134	.	voice	2A- 2cc 2ee- 2gg
2I	E-:maj	178.131	.	voice	2E- 2g 2b-
=91	=91	=91	=91	=91	=91
1I	E-:maj	179.128	.	voice	1E- 1g 1b-
=92	=92	=92	=92	=92	=92
2IV	A-:maj	181.122	newline	voice	2A- 2cc 2ee-
2ii7	F:min7	182.125	.	voice	2F 2a- 2cc 2ee-
=93	=93	=93	=93	=93	=93
2IV	A-:maj	183.129	.	voice	2A- 2cc 2ee-
2ii7	F:min7	184.133	.	voice	2F 2a- 2cc 2ee-
=94	=94	=94	=94	=94	=94
2IV	A-:maj	185.137	.	voice	2A- 2cc 2ee-
2ii7	F:min7	186.14	.	voice	2F 2a- 2cc 2ee-
=95	=95	=95	=95	=95	=95
1IV	A-:maj	187.144	.	voice	1A- 1cc 1ee-
=96	=96	=96	=96	=96	=96
2IV7	A-:maj7	189.151	newline	voice	2A- 2cc 2ee- 2gg
2I	E-:maj	190.145	.	voice	2E- 2g 2b-
=97	=97	=97	=97	=97	=97
4Ic	E-:maj/5	191.139	.	voice	4e- 4g 4B-
2.vi7	C:min7	191.636	.	voice	2C 2e- 2g 2b-
=98	=98	=98	=98	=98	=98
2IV7	A-:maj7	193.127	.	voice	2A- 2cc 2ee- 2gg
2I	E-:maj	194.121	.	voice	2E- 2g 2b-
=99	=99	=99	=99	=99	=99
4Ic	E-:maj/5	195.115	.	voice	4e- 4g 4B-
2.vi7	C:min7	195.612	.	voice	2C 2e- 2g 2b-
=100	=100	=100	=100	=100	=100
*>D_chorus	*>D_chorus	*>D_chorus	*>D_chorus	*>D_chorus	*>D_chorus
2IV	A-:maj	197.103	newline	voice	2A- 2cc 2ee-
2ii7	F:min7	198.104	.	voice	2F 2a- 2cc 2ee-
=101	=101	=101	=101	=101	=101
2IV	A-:maj	199.106	.	voice	2A- 2cc 2ee-
2ii7	F:min7	200.107	.	voice	2F 2a- 2cc 2ee-
=102	=102	=102	=102	=102	=102
2IV	A-:maj	201.109	.	voice	2A- 2cc 2ee-
2ii7	F:min7	202.11	.	voice	2F 2a- 2cc 2ee-
=103	=103	=103	=103	=103	=103
1IV	A-:maj	203.112	.	voice	1A- 1cc 1ee-
=104	=104	=104	=104	=104	=104
2IV7	A-:maj7	205.115	newline	fadeout voice	2A- 2cc 2ee- 2gg
2I	E-:maj	206.122	.	fadeout voice	2E- 2g 2b-
=105	=105	=105	=105	=105	=105
4Ic	E-:maj/5	207.129	.	fadeout voice	4e- 4g 4B-
2.vi7	C:min7	207.633	.	fadeout voice	2C 2e- 2g 2b-
=106	=106	=106	=106	=106	=106
2IV7	A-:maj7	209.144	.	fadeout voice	2A- 2cc 2ee- 2gg
2I	E-:maj	210.151	.	fadeout voice	2E- 2g 2b-
=107	=107	=107	=107	=107	=107
1I	E-:maj	211.158	.	fadeout voice	1E- 1g 1b-
1r;	N	218.964	.	r	1r;
1r;	N	221.936	.	r	1r;
*-	*-	*-	*-	*-	*-
!!!OTL: Young Hearts Run Free
!!!COC: Candi Staton
!!!BillboardChartDate: 1976/06/26, 1976/08/21
!!!BillboardPeak: 20, 20
!!!BillboardWeeksOnChart: 16, 16
!!!SampleTargetRank: 38, 20
!!!SampleActualRank: 40, 20
!!!SampleID#: 390, 522
!!!RDF**harmony: **recip + pitch class of root + harmonic quality
!!!RDF**harte: Chris Harte's syntax, used by MIREX
!!!RDF**phrase: newline = linebreak in original McGill transcription
!!!RDF**timestamp: McGill audio timestamp in seconds
!!!RDF**leadinstrument: original McGill primary instrumentation annotation
!!!RDT: 2017/01/12/
!!!ENC: Nathaniel Condit-Schultz
!!!EST: Awating manual error checking and editing.
